X:1
T:Title
%%score ( 1 2 ) ( 3 4 )
L:1/8
Q:1/4=100
M:4/4
K:Ab
V:1 treble nm="Violin, Soprano"
V:2 treble 
V:3 bass nm="Violin, Bass"
V:4 bass 
V:1
 z4 z2 [A,C]>[B,D] | [CE]2 [EA]>[EA] [EA]2 [EA]>[EB] | [Ec]2 [Ae]>[Ec] [EA]2 [EA]>[EB] | %3
w: 1.~There's~ a~|riv er~ of~ life~ with~ its~|pure~ crys tal~ light,~ Flow ing~|
 [Ac]2 [Af]>[Af] [Ae]2 [Ac]2 | [GB]6 [A,C]>[B,D] | [CE]2 [EA]>[EA] [EA]2 [EA]>[EB] | %6
w: out~ from~ the~ great~ white~|throne;~ In~ that~|beau ti ful~ land~ where~ there~|
 [Ec]2 e>c [EA]2 [EA]>[FB] | [Ec]>[Ec] [Ae]>[Ac] [EA]2 [EB]2 | [EA]6 [A,C]>[B,D] | %9
w: is~ no~ * night,~ And~ where~|sor row~ nev er~ can~ be~|known.~ * *|
 [CE]2 [EA]2 [EA]2 [Ac]2 | [Af]2 [Ae]4 A>B | [Ec]2 [Ae]>[Ac] [EA]2 [EB]>[EB] | [EA]6 [A,C]>[B,D] | %13
w: ||||
 [CE]2 [EA]2 [EA]2 A>B | [Ac]2 [Ae]2 [EA]2 [EA]>[FB] | [Ec]>[Ec] [Ae]>[Ac] [EA]2 [EB]2 | %16
w: |||
 [EA]6 z2 |] %17
w: |
V:2
 x8 | x8 | x8 | x8 | x8 | x8 | z2 E2 z4 | x8 | x8 | x8 | z4 z2 E2 | x8 | x8 | z4 z2 E2 | x8 | x8 | %16
 x8 |] %17
V:3
 z4 z2 [A,,E,]>[A,,E,] | [A,,A,]2 [A,,C]>[A,,C] [A,,C]2 [C,A,]>[E,G,] | %2
 A,2 [A,C]>A, [A,C]2 [A,C]>[A,D] | [A,E]2 [A,D]>[A,D] [A,C]2 [A,E]2 | [E,E]6 [A,,E,]>[A,,E,] | %5
 [A,,A,]2 [A,,C]>[A,,C] [A,,C]2 [C,A,]>[E,G,] | z2 C2 z4 | %7
 [E,A,]>[E,A,] [E,C]>[E,E] [E,C]2 [E,D]2 | [A,,C]6 [A,,E,]>[A,,E,] | %9
 [A,,A,]2 [A,,C]2 [A,C]2 [A,E]2 | [A,D]2 [A,C]4 [C,A,]2 | [E,A,]2 [E,C]>[E,E] [E,C]2 [E,D]>[E,D] | %12
 [A,,C]6 [A,,E,]>[A,,E,] | [A,,A,]2 [A,,C]2 [A,,C]2 [C,A,]>[E,G,] | %14
 A,2 [A,C]2 [A,C]2 [C,A,]>[D,A,] | [E,A,]>[E,A,] [E,C]>[E,E] [E,C]2 [E,D]2 | [A,,C]6 z2 |] %17
V:4
 x8 | x8 | x8 | x8 | x8 | x8 | A,2 A,->[A,E] [A,C]2 [C,A,]>[D,A,] | x8 | x8 | x8 | x8 | x8 | x8 | %13
 x8 | x8 | x8 | x8 |] %17

